X:1
T:Atraente
T:ATRAENTE
T:ATRAENTE
T:Francisca Gonzaga (1847-1935)
T:Introdução
T:ATRAENTE
T:Polca
T:1/3 ©2011 Acervo Digital Chiquinha Gonzaga | www.ChiquinhaGonzaga.com/acervo Editoração: Douglas Passoni | Revisão e Cifras: Alexandre Dias
T:1/3 ©2011 Acervo Digital Chiquinha Gonzaga | www.ChiquinhaGonzaga.com/acervo Editoração: Douglas Passoni | Revisão e Cifras: Alexandre Dias
T:1/3 ©2011 Acervo Digital Chiquinha Gonzaga | www.ChiquinhaGonzaga.com/acervo Editoração: Douglas Passoni | Revisão e Cifras: Alexandre Dias
T:1/3 ©2011 Acervo Digital Chiquinha Gonzaga | www.ChiquinhaGonzaga.com/acervo Editoração: Douglas Passoni | Revisão e Cifras: Alexandre Dias
T:1/3 ©2011 Acervo Digital Chiquinha Gonzaga | www.ChiquinhaGonzaga.com/acervo Editoração: Douglas Passoni | Revisão e Cifras: Alexandre Dias
Z:1/3
Z:©2011 Acervo Digital Chiquinha Gonzaga | www.ChiquinhaGonzaga.com/acervo
Z:Editoração: Douglas Passoni | Revisão e Cifras: Alexandre Dias
%%score { 1 | ( 2 3 ) }
L:1/8
M:2/4
K:F
V:1 treble nm="Piano"
V:2 bass 
V:3 bass 
V:1
 c'{/=B}c{/B} c{/=b}c' |{/=b} c'{/=B}c{/B} c{/b}c' | %2
"^di    -     mi     -     nu    -    in     -     do"{/=b} c'{/b}c'{/b} c'{/b}c' | %3
{/=b} c'{/b}c'{/b} c'{/b}c' | .!^!c'/(B/c/e/ (!fermata!a/)g/e/c/) |: %5
"C7""^Com gosto""^Polca" (B>a g2) | z/ (B/c/e/ a/g/e/B/) |"F/C" (A>g f2) | %8
 z/ (^G/A/c/ g/f/"Fm/Ab"c/_A/) |"C/G" (Gc/e/ g/c'/e'/g'/) | %10
"G7""^Expressivo" a'/g'/g'/_g'/ g'/f'/f'/e'/ |"C7" e'/c'/c'/b/ b/g/g/e/ | %12
"C/Bb" e/(B/c/e/ (!fermata!a/)g/e/c/) |"C7" (B>a g2) | z/ (B/c/e/ a/g/e/B/) |"F/C" (A>g f2) | %16
"Gm/Bb" z/ (^c/d/g/ c'/b/"Bbdim"_d/b/) |"F/C" (b/a/)(a/c/) c2 |"G7/D" z/ =B/B/a/"C7/E" a/g/g/e/ | %19
"F" f/(A/f/)(c/ a/)(f/c'/)a/ ||1 f'/(B/c/e/ (!fermata!a/)g/e/c/) :|2 f' (a^ga) || %22
"A7""^Gracioso" b/(^c/e/b/) !>!b/(c/e/b/) | b/(^c/e/b/) !>!b/(c/e/b/) | %24
"Dm" !>!b/(d/f/a/) !>!a/(d/f/a/) |"Dm/F" !>!a/(d/f/a/) a/_a/"Abdim"a/g/ | %26
"C/G" .g/.c'/.c'/.e'/ .e'/.g'/.g'/.a'/ |"G7" .a'/.g'/.g'/.f'/ .f'/.d'/.d'/.=b/ | %28
"C" .d'/.c'/.c'/.g/ .g/.e/.e/.c/ | c (a^ga) | %30
"A7" [^ceb]!8va(![^c'e'b']!8va)! [ceb]!8va(![c'e'b']!8va)! | [^ceb][ceb] [cea][ce] | %32
"Dm" [dfa][dfa] [dfa][dfa] |"Dm/F" [dfa][dfa]"Abdim" [df_a][dfa] |"C/G" [eg][eg] c'e' | %35
"G7" a'g' f'=b |"C" .!^!c'{/=B}c{/B} c{/=b}c' |{/=b} c'{/=B}c{/B} c{/b}c' | %38
{/=b} c'!8va(!{/=b'}c''!8va)!{/b} c'!8va(!{/b'}c''!8va)! | %39
{/=b} c'!8va(!{/=b'}c''!8va)!{/b} c'!8va(!{/b'}c''!8va)! | %40
 .!^!c'/(B/c/e/ (!fermata!a/)g/e/c/)!D.S.! ||"F" f' fe_e |:[K:Bb]"Bb" !>!d[FB]"Bb/D" !>!f[FB] | %43
"Eb" !>!g/(G/c/e/ (g/)G/)(_g/_G/) |"F7" !>!f[EF] !>!e[EF] |"Bb" !>!d/(D/F/B/ d/f/b/d'/ | %46
"Bb/D" f')[fb]"Bbm/Db" g'[fb] |"F/C" a'/(a/c'/f'/ a'/c'/a'/c'/) | %48
"C7"!8va(! c''/b'/g'/=e'/!8va)! c'/b/g/=e/ |"F" f/(f'/e'/c'/"F7" a/f/e/c/) | %50
"Bb" !>!d[FB]"Bb/D" !>!f[FB] |"Cm/Eb" !>!g/(G/c/e/ (g/)G/)(_g/_G/) |"F7" !>!f[EF] !>!e[EF] | %53
"Bb" !>!d/(D/F/B/ d/f/b/d'/ |"Bb" f')[fb]"Abdim" g'=b/f'/ |"Cm/G" f'/e'/e'/g/"Ebdim" d'c' | %56
"Bb/F" c'/b/b/d/"F7" g/f/f/A/ |"Bb" B2 [dfb]2!D.C.! :| %58
V:2
"^Brilhante" x4[K:treble] | x4 | x4 | x4 | x4 |:[K:bass] x4 | x4 | x4 | x4 | x4 | x4 | x4 | x4 | %13
 x4 | x4 | x4 | x4 | x4 | x4 | x4 ||1 x4 :|2 x4 || x4 | x4 | x4 | x4 | x4 | x4 | x4 | x4 | x4 | %31
 [A,,,A,,]z/[A,^CG]/ z [A,CG] | [D,,D,]z/[A,DF]/ z [A,DF] | F,z/[A,DF]/ z [_A,DF] | %34
 G,z/[CE]/ z [CE] | G,z/[=B,F]/ z [B,F] | x4[K:treble] | x4 | x4 | x4 | x4 ||[K:bass] x4 |: %42
[K:Bb] x4 | x4 | x4 | x4 | x4 | x4 | x4 | x4 | x4 | x4 | x4 | x4 | x4 | x4 | x4 | x4 :| %58
V:3
 [CE][K:treble] AB[^FA] | [GB] AB[^FA] | [GB] [^FA][GB][FA] | [GB][^FA] [GB][FA] | [GB]2 z2 |: %5
[K:bass] C,z/[G,B,CE]/ [G,B,CE][G,B,CE] | C,z/[B,CE]/ [B,CE][B,CE] | C,z/[A,CF]/ [A,CF][A,CF] | %8
 C,z/[A,CF]/ [A,CF][_A,CF] | [G,CE]z/[G,CE]/ [G,CE][G,CE] | G,,z/[G,=B,F]/ [G,B,F][G,B,F] | %11
 C,z/[G,B,CE]/ [G,B,CE][G,B,CE] | [B,CEG]2 z2 | C,z/[G,B,CE]/ [G,B,CE][G,B,CE] | %14
 C,z/[G,B,CE]/ [G,B,CE][G,B,CE] | C,z/[A,CF]/ [A,CF][A,CF] | B,,z/[B,DG]/ [B,DG][B,_DG] | %17
 C,z/[A,CF]/ [A,CF][A,CF] | D,[G,=B,F] E,[_B,CG] | F,z/[A,CF]/ [A,CF][A,CF] ||1 [F,A,CF]2 z2 :|2 %21
 [F,A,CF] z z2 || [A,,,A,,]z/[A,^CG]/ z [A,CG] | [A,,,A,,]z/[A,^CG]/ z [A,CG] | %24
 [D,,D,]z/[A,DF]/ z [A,DF] | [F,,F,]z/[A,DF]/ z [_A,DF] | G,z/[CE]/ z [CE] | %27
 [G,,,G,,]z/[G,=B,F]/ z [G,B,F] | [C,,C,]z/[G,CE]/ z [G,CE] | [C,E,G,C]2 z2 | %30
 [A,,,A,,]z/[A,^CG]/ z [A,CG] | x4 | x4 | x4 | x4 | x4 | [CE][K:treble] AB[^FA] | [GB] AB[^FA] | %38
 [GB][^FA] [GB][FA] | [GB][^FA] [GB][FA] | [GB]2 z2 ||[K:bass] [F,A,CF]2 z2 |: %42
[K:Bb] !>!B,,[F,B,D] !>!D,[F,B,D] | !>!E,z/[G,C]/ z !>!=E, | !>!F,[A,C] !>!F,[A,C] | %45
 B,,z/[F,B,D]/ z [F,B,D] | !>!D,[F,B,F] !>!_D,[F,B,F] | !>!C,[A,CF] [A,CF][A,CF] | %48
 C,[B,C=E] [B,CE][B,CE] | F,[A,CF] F,[A,CE] | !>!B,,[F,B,D] !>!D,[F,B,D] | !>!E,z/[G,C]/ z !>!=E, | %52
 !>!F,[A,C] !>!F,[A,C] | B,,[F,B,D] [F,B,D][F,B,D] | !>!B,[DF] !>!_A,[=B,DF] | %55
 !>!G,[CE] !>!E,[_G,CE] | !>!F,[B,D] !>!F,[A,CE] | [B,D]2 [B,,B,]2 :| %58

